src/sources/forus-platform/resources/_platform-common/assets/img/features/icons/backoffice-api/icon-1.svg

<svg width="59" height="58" viewBox="0 0 59 58" fill="none" xmlns="http://www.w3.org/2000/svg">
    <rect x="0.5" width="58" height="58" rx="8" fill="#F7F9FC"/>
    <path d="M23.5 13C17.9771 13 13.5 17.4771 13.5 23C13.5 28.5229 17.9771 33 23.5 33C23.6769 33.0003 23.8468 32.9303 23.972 32.8053L33.3053 23.472C33.4303 23.3468 33.5003 23.1769 33.5 23C33.4941 17.4796 29.0204 13.0059 23.5 13Z" fill="#092DAA"/>
    <path d="M27.3004 25.9489C26.8989 25.9489 26.7315 26.1875 26.4304 26.4091C25.7611 26.9375 25.1587 27.1591 24.3724 27.1591C22.9501 27.1591 21.8458 26.375 21.3104 25.0625H24.205C24.5899 25.0625 24.9078 24.7557 24.9078 24.3636C24.9078 23.9545 24.5899 23.6477 24.205 23.6477H20.9591C20.9423 23.4432 20.9256 23.2216 20.9256 23C20.9256 22.7955 20.9423 22.608 20.9591 22.4205H24.9245C25.3261 22.4205 25.6272 22.1136 25.6272 21.7045C25.6272 21.3125 25.3261 21.0057 24.9245 21.0057H21.277C21.8124 19.6591 22.9167 18.8409 24.3724 18.8409C25.1755 18.8409 25.7946 19.0625 26.4304 19.5909C26.7315 19.8125 26.8989 20.0511 27.3004 20.0511C27.7187 20.0511 28.0534 19.6761 28.0534 19.233C28.0534 18.9943 27.9697 18.7898 27.7354 18.5511C26.8989 17.6818 25.6774 17.1875 24.3054 17.1875C21.8793 17.1875 20.0221 18.6875 19.3528 21.0057H18.282C17.8971 21.0057 17.5792 21.3125 17.5792 21.7045C17.5792 22.1136 17.8971 22.4205 18.282 22.4205H19.1018C19.0851 22.608 19.0851 22.7955 19.0851 23C19.0851 23.2216 19.1018 23.4432 19.1186 23.6477H18.2652C17.8637 23.6477 17.5625 23.9545 17.5625 24.3636C17.5625 24.7557 17.8637 25.0625 18.2652 25.0625H19.3863C20.0723 27.3295 21.9295 28.8125 24.3054 28.8125C25.6774 28.8125 26.8989 28.3182 27.7354 27.4489C27.9697 27.2102 28.0534 27.0057 28.0534 26.767C28.0534 26.3239 27.7187 25.9489 27.3004 25.9489Z" fill="white"/>
    <path d="M34.1673 22.3333C27.908 22.3333 22.834 27.4074 22.834 33.6666C22.834 39.9258 27.908 45 34.1673 45C40.4265 45 45.5006 39.9259 45.5006 33.6667C45.4932 27.4105 40.4235 22.3407 34.1673 22.3333Z" fill="#315EFD"/>
    <path d="M23.5 42.3333C20.746 42.189 18.4185 40.2425 17.7893 37.5573L19.2 38.2627C19.5295 38.4273 19.9301 38.2936 20.0947 37.964C20.2593 37.6345 20.1256 37.234 19.796 37.0693L17.1293 35.736C17.1107 35.7267 17.0893 35.728 17.0693 35.72C16.9843 35.6876 16.8936 35.6726 16.8027 35.676C16.7813 35.6749 16.76 35.6749 16.7387 35.676C16.7178 35.6821 16.6974 35.6892 16.6773 35.6973C16.5066 35.7375 16.3585 35.8434 16.2653 35.992C16.2547 36.0093 16.2373 36.0213 16.228 36.04L14.8947 38.7067C14.7301 39.036 14.8636 39.4365 15.1929 39.6011C15.1931 39.6012 15.1932 39.6013 15.1934 39.6014C15.2889 39.6475 15.3941 39.67 15.5001 39.6667C15.7528 39.6672 15.9842 39.5247 16.0974 39.2987L16.6147 38.264C17.497 41.3664 20.2768 43.5476 23.5 43.6667C23.8682 43.6667 24.1667 43.3682 24.1667 43C24.1667 42.6318 23.8682 42.3333 23.5 42.3333Z" fill="#2E3242"/>
    <path d="M43.7994 18.4013C43.47 18.2367 43.0696 18.3702 42.9049 18.6995C42.9049 18.6997 42.9047 18.6998 42.9047 18.7L42.3874 19.7347C41.5044 16.6324 38.724 14.4516 35.5007 14.3333C35.1325 14.3333 34.834 14.6318 34.834 15C34.834 15.3682 35.1325 15.6667 35.5007 15.6667C38.2534 15.8113 40.5799 17.7564 41.21 20.44L39.7993 19.7347C39.4698 19.5701 39.0692 19.7038 38.9046 20.0334C38.74 20.3629 38.8737 20.7634 39.2033 20.9281L41.87 22.2614C41.8793 22.2614 41.8887 22.2614 41.898 22.2614C41.9815 22.3045 42.0734 22.3291 42.1673 22.3334C42.2887 22.3345 42.408 22.3013 42.5113 22.2374L42.5233 22.2267C42.6114 22.1684 42.6841 22.0897 42.7353 21.9974C42.7433 21.9841 42.758 21.9787 42.7646 21.9654L44.0979 19.2987C44.2637 18.9699 44.1317 18.5691 43.803 18.4032C43.8018 18.4026 43.8005 18.4019 43.7994 18.4013Z" fill="#2E3242"/>
    <path fill-rule="evenodd" clip-rule="evenodd" d="M34.1562 26.75C30.066 26.75 26.75 30.0115 26.75 34.0348C26.75 36.0526 27.5839 37.8786 28.9314 39.1974C29.0181 39.2818 29.1657 39.2619 29.2249 39.1569C29.8562 38.0352 30.9628 37.1579 32.3132 36.731C31.432 36.147 30.8528 35.1571 30.8528 34.0342C30.8528 32.2392 32.3317 30.785 34.1562 30.785C35.9808 30.785 37.4597 32.2392 37.4597 34.0342C37.4597 35.1571 36.8799 36.147 35.9993 36.731C37.3497 37.1579 38.4563 38.0352 39.0876 39.1569C39.1462 39.2619 39.2944 39.2818 39.3805 39.1974C40.728 37.8786 41.5625 36.0526 41.5625 34.0348C41.5625 30.0115 38.2465 26.75 34.1562 26.75Z" fill="white"/>
</svg>

<svg width="59" height="58" fill="none" xmlns="http://www.w3.org/2000/svg"><rect x=".5" width="58" height="58" rx="8" fill="#F7F9FC"/><path d="M23.5 13c-5.523 0-10 4.477-10 10s4.477 10 10 10c.177 0 .347-.07.472-.195l9.333-9.333A.667.667 0 0 0 33.5 23c-.006-5.52-4.48-9.994-10-10Z" fill="#092DAA"/><path d="M27.3 25.949c-.401 0-.569.238-.87.46-.669.529-1.271.75-2.058.75-1.422 0-2.526-.784-3.062-2.096h2.895a.699.699 0 0 0 .703-.7.703.703 0 0 0-.703-.715h-3.246a7.94 7.94 0 0 1-.033-.648c0-.204.016-.392.033-.58h3.965a.693.693 0 0 0 .703-.716.689.689 0 0 0-.703-.698h-3.647c.535-1.347 1.64-2.165 3.095-2.165.803 0 1.423.221 2.058.75.302.221.469.46.87.46.419 0 .753-.375.753-.818 0-.239-.083-.443-.318-.682-.836-.87-2.058-1.363-3.43-1.363-2.426 0-4.283 1.5-4.952 3.818h-1.071a.699.699 0 0 0-.703.698c0 .41.318.716.703.716h.82c-.017.188-.017.375-.017.58 0 .222.017.443.034.648h-.854a.693.693 0 0 0-.703.716c0 .392.302.698.703.698h1.121c.686 2.267 2.544 3.75 4.92 3.75 1.371 0 2.593-.494 3.43-1.363.234-.239.317-.443.317-.682 0-.443-.334-.818-.753-.818Z" fill="#fff"/><path d="M34.167 22.333c-6.259 0-11.333 5.074-11.333 11.334C22.834 39.926 27.908 45 34.167 45c6.26 0 11.334-5.074 11.334-11.333-.008-6.257-5.078-11.326-11.334-11.334Z" fill="#315EFD"/><path d="M23.5 42.333a6.199 6.199 0 0 1-5.71-4.776l1.41.706a.667.667 0 1 0 .596-1.194l-2.667-1.333c-.018-.01-.04-.008-.06-.016a.678.678 0 0 0-.266-.044.621.621 0 0 0-.064 0 .655.655 0 0 0-.062.021.667.667 0 0 0-.412.295c-.01.017-.028.03-.037.048l-1.333 2.667a.667.667 0 0 0 .298.894c.096.047.201.069.307.066a.667.667 0 0 0 .597-.368l.518-1.035a7.444 7.444 0 0 0 6.885 5.403.667.667 0 0 0 0-1.334ZM43.8 18.401a.667.667 0 0 0-.895.299l-.518 1.035a7.444 7.444 0 0 0-6.886-5.402.667.667 0 0 0 0 1.334 6.199 6.199 0 0 1 5.709 4.773l-1.41-.705a.667.667 0 1 0-.597 1.193l2.667 1.333h.028a.652.652 0 0 0 .27.072.643.643 0 0 0 .343-.096l.012-.01a.657.657 0 0 0 .212-.23c.008-.013.023-.018.03-.032l1.333-2.666a.667.667 0 0 0-.299-.898Z" fill="#2E3242"/><path fill-rule="evenodd" clip-rule="evenodd" d="M34.156 26.75c-4.09 0-7.406 3.262-7.406 7.285a7.2 7.2 0 0 0 2.181 5.162.189.189 0 0 0 .294-.04c.631-1.122 1.738-2 3.088-2.426a3.232 3.232 0 0 1-1.46-2.697c0-1.795 1.479-3.249 3.303-3.249 1.825 0 3.304 1.454 3.304 3.25 0 1.122-.58 2.112-1.46 2.696 1.35.427 2.456 1.304 3.088 2.426a.188.188 0 0 0 .292.04 7.201 7.201 0 0 0 2.182-5.162c0-4.023-3.316-7.285-7.406-7.285Z" fill="#fff"/></svg>
